symbols/web/format_strikethrough/materialsymbolsoutlined/format_strikethrough_wght700grad200_40px.svg

<svg xmlns="http://www.w3.org/2000/svg" height="40" width="40"><path d="M3.333 23.333v-2.75h33.334v2.75ZM17 17.792v-6.125H7.542V5.583H32.5v6.084h-9.458v6.125Zm0 16.625v-8.292h6.042v8.292Z"/></svg>

<svg xmlns="http://www.w3.org/2000/svg" height="40" width="40"><path d="M3.333 23.333V20.583H36.667V23.333ZM17 17.792V11.667H7.542V5.583H32.5V11.667H23.042V17.792ZM17 34.417V26.125H23.042V34.417Z"/></svg>
